X:1
T:Night Mist Blues
T:Night Mist Blues
T:Ahmad Jamal
C:Ahmad Jamal
Z:All Rights Reserved
L:1/8
M:4/4
K:F
V:1 treble 
%%MIDI program 0
V:1
 D F (3G/F/D/ F (3G/F/D/ Fd |:"F7" c3 G- G4 | z D F (3G/F/D/ F (3G/F/D/ Fd |"Bb7" c3 G- G4 | %4
 z D F (3G/F/D/ F (3G/F/D/ F_e |"^Ab-7" _d3 _A-"Db7" A4 |"^G-7" .c2 .A2"C7" (F .G2) A- | %7
"A7" A3 A-"Ab7"AB^G.A |"G7" z D F (3G/F/D/"Gb7" F (3G/F/D/ Fd :| %9

